images/logo-16.svg

<svg height="16" viewBox="0 0 16 16" width="16" xmlns="http://www.w3.org/2000/svg"><path d="m2.8 2h10.6l2.6 3.1h-15.8z" fill="#4ec5d6"/><path d="m2.8 2 2.7 3.1h-5.5z" fill="#00b7d9"/><path d="m8.2 2-2.7 3.1h5.3z" fill="#a6dbd9"/><path d="m0 5.1h16l-7.8 9z" fill="#195070"/><path d="m5.5 5.1 2.7 8.9 2.6-8.9z" fill="#226487"/><path d="m10.8 5.1-.4 1.3-1.3-1.3z" fill="#339fbb"/><path d="m9.1 5.1-1.8-2.1.9-1 2.6 3.1z" fill="#195070"/><path d="m7.3 3 1.8 2.1h-.9l-1.4-1.5z" fill="#a3dbe0"/><path d="m10.4 6.4-1.3-1.3h-.9l2 2.1z" fill="#298db3"/><path d="m12.9 8.7-2.5-2.3-.2.8 2.1 2.1z" fill="#276b92"/><path d="m6.8 3.6 1.4 1.5h-.9l-.9-1z" fill="#8fd4d8"/><path d="m10.2 7.2-2-2.1h-.9l2.7 2.8z" fill="#1d7aa7"/><path d="m12.3 9.3-2.1-2.1-.2.7 1.9 1.9z" fill="#245b7d"/><path d="m10.8 5.1-.4 1.3 2.4 2.4 3.2-3.7z" fill="#387799"/></svg>

<svg xmlns="http://www.w3.org/2000/svg" width="16" height="16" viewBox="0 0 16 16"><path fill="#4ec5d6" d="M2.8 2h10.6L16 5.1H.2z"/><path fill="#00b7d9" d="M2.8 2l2.7 3.1H0z"/><path fill="#a6dbd9" d="M8.2 2L5.5 5.1h5.3z"/><path fill="#195070" d="M0 5.1h16l-7.8 9z"/><path fill="#226487" d="M5.5 5.1L8.2 14l2.6-8.9z"/><path fill="#339fbb" d="M10.8 5.1l-.4 1.3-1.3-1.3z"/><path fill="#195070" d="M9.1 5.1L7.3 3l.9-1 2.6 3.1z"/><path fill="#a3dbe0" d="M7.3 3l1.8 2.1h-.9L6.8 3.6z"/><path fill="#298db3" d="M10.4 6.4L9.1 5.1h-.9l2 2.1z"/><path fill="#276b92" d="M12.9 8.7l-2.5-2.3-.2.8 2.1 2.1z"/><path fill="#8fd4d8" d="M6.8 3.6l1.4 1.5h-.9l-.9-1z"/><path fill="#1d7aa7" d="M10.2 7.2l-2-2.1h-.9L10 7.9z"/><path fill="#245b7d" d="M12.3 9.3l-2.1-2.1-.2.7 1.9 1.9z"/><path fill="#387799" d="M10.8 5.1l-.4 1.3 2.4 2.4L16 5.1z"/></svg>
